icons/twitter.svg

<svg width="24" height="24" viewBox="0 0 24 24" fill="none" xmlns="http://www.w3.org/2000/svg">
<path d="M24 4.36764C23.1182 4.76923 22.1687 5.04081 21.1727 5.16215C22.1898 4.5381 22.9702 3.54857 23.3379 2.36981C22.3856 2.94763 21.3333 3.368 20.2092 3.59336C19.3133 2.6125 18.0328 2 16.6156 2C13.8982 2 11.6936 4.26074 11.6936 7.04875C11.6936 7.44456 11.7359 7.82882 11.8204 8.19863C7.72812 7.98772 4.10072 5.97978 1.67072 2.92163C1.2467 3.66992 1.0044 4.5381 1.0044 5.46262C1.0044 7.21343 1.87357 8.75912 3.19493 9.66486C2.38915 9.6403 1.62846 9.41062 0.96355 9.03503V9.09715C0.96355 11.5442 2.66103 13.5854 4.91495 14.0477C4.5022 14.1661 4.06691 14.2254 3.61754 14.2254C3.30058 14.2254 2.99067 14.195 2.69061 14.1358C3.31749 16.1408 5.13471 17.6013 7.29002 17.6403C5.60521 18.9953 3.48089 19.8028 1.17485 19.8028C0.777602 19.8028 0.384575 19.7797 0 19.7335C2.17926 21.1636 4.76845 22 7.54781 22C16.6057 22 21.5573 14.3077 21.5573 7.63525C21.5573 7.41567 21.5531 7.1961 21.5446 6.98086C22.5068 6.26869 23.3421 5.38028 24 4.36764Z" fill="#686A70"/>
</svg>

<svg class="icon" xmlns="http://www.w3.org/2000/svg" width="24" height="24" viewBox="0 0 24 24">
    <g fill="none" fill-rule="evenodd">
        <g fill="#FFFFFF" fill-rule="nonzero">
            <g>
                <path d="M24 4.368c-.882.401-1.831.673-2.827.794 1.017-.624 1.797-1.613 2.165-2.792-.952.578-2.005.998-3.129 1.223C19.313 2.613 18.033 2 16.616 2c-2.718 0-4.922 2.26-4.922 5.049 0 .396.042.78.126 1.15-4.092-.211-7.72-2.22-10.15-5.277-.423.748-.666 1.616-.666 2.54 0 1.751.87 3.297 2.19 4.203-.805-.025-1.566-.254-2.23-.63v.062c0 2.447 1.697 4.488 3.95 4.95-.412.12-.847.178-1.296.178-.317 0-.627-.03-.927-.09.626 2.006 2.444 3.466 4.599 3.505-1.685 1.355-3.81 2.163-6.115 2.163-.397 0-.79-.023-1.175-.07C2.18 21.163 4.768 22 7.548 22c9.058 0 14.01-7.692 14.01-14.365 0-.22-.005-.439-.013-.654.962-.712 1.797-1.6 2.455-2.613" transform="translate(-252 -388) translate(212 388) translate(40)"/>
            </g>
        </g>
    </g>
</svg>
